X: 041
T: Miss Finches Hornpipe
%R: hornpipe, reel
Z: 2018 John Chambers <jc:trillian.mit.edu>
B: Bland and Weller "Country Dances for the Year 1798" p.4 #1
S: Private email from ECD list
M: C|
L: 1/8
K: G
|:\
GABc dBAG | cBAG GFED | GDGB ADAc | BdBG FAFD | GABc dBAG | cBAG GFED |
B,DGB Cedc | BAGF G2G2 :: GBdg bgdB | FAdf afdA | efga bagf |
gfed ^cecA | eAeg fafd | eAeg fafd | eAeg (3fag (3fed | (3egf (3ed^c (3ded (3=cB"^D.C."A :|
% - - - - - - - - - - - - - - - - - - - - - - - - -
%%begintext align
%% Hey contrary sides .| then on your own sides .|.
%% lead down the middle up again & foot it to the
%% Top Couple :|. hands 4 at bottom & right and
%% left at top :|:
%%endtext
% - - - - - - - - - - - - - - - - - - - - - - - - -
